X: 11391
Q: "Very slow and pathetic."
M: 6/8
L: 1/16
K: Eb
(GF) |\
E4 GB B4 (G>B) | c3d ({f}ed) ({d}c2B2) (GF) |\
E4 GB (B3c) d2 | {eg}e4 B2 {A}G4 :|\
(Bc/d/) |\
e4 de {eg}f4 ed | c3B G>B B4 (ed/c/) |\


